src/basic/100/u2B21-hex.svg

<svg width="95" height="128" viewBox="0 0 95 128" fill="none" xmlns="http://www.w3.org/2000/svg">
<path fill-rule="evenodd" clip-rule="evenodd" d="M47.4989,11.0004l0.223,0.1111l46.9974,23.4183l0.277,0.138v0.3095v58.5457v0.3095l-0.277,0.1381l-46.9974,23.4184l-0.223,0.111l-0.2229,-0.111l-46.99741,-23.4184l-0.27701,-0.1381v-0.3095v-58.5457v-0.3095l0.27701,-0.138l46.99741,-23.4183zM1.00159,35.2868v57.9268l46.49731,23.1694l46.4974,-23.1695v-57.9267l-46.4974,-23.1691z" fill="black"/>
</svg>

<svg width="95" height="128" viewBox="0 0 95 128" fill="none" xmlns="http://www.w3.org/2000/svg">
<path fill-rule="evenodd" clip-rule="evenodd" d="M47.4989 11.0004L47.7219 11.1115L94.7193 34.5298L94.9963 34.6678V34.9773V93.523V93.8325L94.7193 93.9706L47.7219 117.389L47.4989 117.5L47.276 117.389L0.278593 93.9706L0.00158691 93.8325V93.523V34.9773V34.6678L0.278593 34.5298L47.276 11.1115L47.4989 11.0004ZM1.00159 35.2868V93.2136L47.4989 116.383L93.9963 93.2135V35.2868L47.4989 12.1177L1.00159 35.2868Z" fill="black"/>
</svg>
